src/components/Home/icons/pricing.svg

<svg width="20" height="20" viewBox="0 0 20 20" fill="none" xmlns="http://www.w3.org/2000/svg">
<path d="M17.348 7.542L17.254 7.506L16.882 6.6L16.922 6.506C18.046 3.906 17.968 3.824 17.78 3.636L16.28 2.14C16.2085 2.07396 16.1153 2.03627 16.018 2.034C15.936 2.034 15.678 2.034 13.46 3.06L13.37 3.1L12.46 2.728L12.42 2.634C11.378 0 11.272 0 11.012 0H8.892C8.634 0 8.518 0 7.55 2.64L7.514 2.738L6.6 3.116L6.514 3.08C5.014 2.436 4.14 2.108 3.914 2.108C3.81668 2.11027 3.72353 2.14796 3.652 2.214L2.148 3.714C1.948 3.914 1.878 3.988 3.062 6.536L3.104 6.63L2.734 7.532L2.644 7.568C0 8.6 0 8.71 0 8.984V11.104C0 11.378 0 11.49 2.646 12.458L2.74 12.494L3.118 13.4L3.078 13.494C1.954 16.094 2.024 16.168 2.216 16.364L3.716 17.86C3.78855 17.9269 3.88329 17.9647 3.982 17.966C4.064 17.966 4.322 17.966 6.54 16.944L6.63 16.902L7.544 17.28L7.58 17.374C8.618 20 8.728 20 8.984 20H11.104C11.37 20 11.478 20 12.446 17.36L12.482 17.262L13.4 16.884L13.486 16.92C14.986 17.568 15.86 17.892 16.086 17.892C16.185 17.8921 16.2802 17.8541 16.352 17.786L17.856 16.282C18.044 16.082 18.126 16.008 16.938 13.464L16.896 13.366L17.266 12.464L17.356 12.428C20 11.384 20 11.282 20 11V8.894C20 8.62 20 8.51 17.348 7.542ZM10 12.746C9.45732 12.744 8.9274 12.5813 8.47714 12.2784C8.02688 11.9754 7.67647 11.5459 7.47017 11.0439C7.26386 10.542 7.21091 9.99019 7.31799 9.45818C7.42507 8.92617 7.68739 8.43781 8.07182 8.05478C8.45625 7.67174 8.94555 7.4112 9.47795 7.30605C10.0103 7.20091 10.562 7.25587 11.0631 7.464C11.5643 7.67213 11.9926 8.02409 12.2939 8.47545C12.5952 8.92681 12.756 9.45732 12.756 10C12.7539 10.7294 12.4625 11.4281 11.9458 11.9429C11.4292 12.4577 10.7294 12.7465 10 12.746Z" fill="white"/>
</svg>

<svg xmlns="http://www.w3.org/2000/svg" width="20" height="20" fill="none">
  <path fill="#fff" d="m17.348 7.542-.094-.036-.372-.906.04-.094c1.124-2.6 1.046-2.682.858-2.87l-1.5-1.496a.4.4 0 0 0-.262-.106c-.082 0-.34 0-2.558 1.026l-.09.04-.91-.372-.04-.094C11.378 0 11.272 0 11.012 0h-2.12c-.258 0-.374 0-1.342 2.64l-.036.098-.914.378-.086-.036c-1.5-.644-2.374-.972-2.6-.972a.4.4 0 0 0-.262.106l-1.504 1.5c-.2.2-.27.274.914 2.822l.042.094-.37.902-.09.036C0 8.6 0 8.71 0 8.984v2.12c0 .274 0 .386 2.646 1.354l.094.036.378.906-.04.094c-1.124 2.6-1.054 2.674-.862 2.87l1.5 1.496a.4.4 0 0 0 .266.106c.082 0 .34 0 2.558-1.022l.09-.042.914.378.036.094C8.618 20 8.728 20 8.984 20h2.12c.266 0 .374 0 1.342-2.64l.036-.098.918-.378.086.036c1.5.648 2.374.972 2.6.972a.386.386 0 0 0 .266-.106l1.504-1.504c.188-.2.27-.274-.918-2.818l-.042-.098.37-.902.09-.036C20 11.384 20 11.282 20 11V8.894c0-.274 0-.384-2.652-1.352ZM10 12.746A2.746 2.746 0 1 1 12.756 10 2.754 2.754 0 0 1 10 12.746Z"/>
</svg>
